!!!OTL@@DE: Ueber die Beschwerden dieses Lebens
!!!COM: Gaveaux, Pierre
!!!OPR: Le petit Matelot
!!!ODT: 1796
!!!OMD: Heiter, nicht schnell
!!!ONB: Aus dem Franz&ouml;s. &uuml;bersetzt von Carl Alexander Herklots
!!!LDT: 1799
!!!OCL: Erk, Ludwig
!!!GCO: Deutscher Liederschatz, Band 1
**kern	**kern	**kern
*staff3	*staff2	*staff1
*>[A,A,B]	*>[A,A,B]	*>[A,A,B]
*>norep[A,B]	*>norep[A,B]	*>norep[A,B]
*>A	*>A	*>A
*Ipiano	*Ipiano	*Ivox
=1-	=1-	=1-
*clefF4	*clefG2	*clefG2
*k[b-e-a-]	*k[b-e-a-]	*k[b-e-a-]
*E-:	*E-:	*E-:
*M2/4	*M2/4	*M2/4
*MM60	*MM60	*MM60
*^	*	*
16G/LL	8E-\	(16e-/LL	16e-/LL
16B-/	.	16f/)	16f/JJ
16e-/	8r	(16g/	16g/LL
16B-/JJ	.	16a-/JJ)	16a-/JJ
8G/	8E-\	8b-\L	8b-\
8ryy	8r	8g\ 8ee-\J	8ee-\
*v	*v	*	*
=2	=2	=2
8AA-/L	8a-/ 8cc/L	8cc\
8C/J	8e-/ 8a-/J	8a-/
8E-\	(16a-/ 16cc/LL	(16cc\LL
.	16g/) 16b-/J	16b-\JJ)
8r	8g/ 8b-/J	8b-\
=3	=3	=3
8BB-/	16d/ (16b-/LL	16b-/LL
.	16a-/)	16a-/JJ
8r	16d/ (16f/	16f/LL
.	16a-/JJ)	16a-/JJ
8E-\L	8e-/ 8g/L	8g/
8G\J	8B-/ 8e-/ 8b-/J	8b-\
=4	=4	=4
8BB-\ 8A-\L	8d/ 8f/L	8f/
8BB-\ 8F\J	8B-/ 8d/ 8b-/J	8b-\
8E-/L	4B-/ 4e-/ 4g/	4g/
8EE-/J	.	.
=5	=5	=5
8BB-/	16d/ (16b-/LL	16b-/LL
.	16a-/)	16a-/JJ
8r	16d/ (16f/	16f/LL
.	16a-/JJ)	16a-/JJ
8E-\L	8e-/ 8g/L	8g/
8G\J	8B-/ 8e-/ 8b-/J	8ee-\
=6	=6	=6
*^	*^	*
16A-/LL	8BB-\L	(16f/LL	8d\	16f/LL
16G/	.	16e-/	.	16e-/JJ
16A-/	8BB-\J	16f/)	8d\	16f/LL
16B-/JJ	.	16g/JJ	.	16g/JJ
*	*	*v	*v	*
4ryy	4E-\ 4G\	4B-/ 4e-/	4e-/
*v	*v	*	*
=7:|!	=7:|!	=7:|!
*>B	*>B	*>B
8BB-\ 8F\	(16B-/ 16d/LL	16d/LL
.	16c/) 16e-/	16e-/JJ
8r	(16d/ 16f/	16f/
.	16e-/) 16g/JJ	16g/
8BB-/	8f/ 8a-/L	8a-/
8r	8B-/ 8f/J	8f/
=8	=8	=8
8E-\ 8G\L	8B-/ 8e-/L	8e-/
8E-\J	8B-/ 8g/J	8g/
*^	*^	*
4BB-\	16D/LL	(16f/LL	8B-\L	(16f/LL
.	16F/J	16d/J	.	16d/JJ)
.	8D/J	8B-/J)	8B-\J	8B-/
*v	*v	*	*	*
*	*v	*v	*
=9	=9	=9
8BB-\ 8F\	(16B-/ 16d/LL	16d/LL
.	16c/) 16e-/	16e-/JJ
8r	(16d/ 16f/	16f/LL
.	16e-/) 16g/JJ	16g/JJ
8BB-/	8f/ 8a-/L	8a-/
8r	8B-/ 8f/J	8f/
=10	=10	=10
8E-\ 8G\L	8B-/ 8e-/L	8e-/
8E-\ 8B-\J	8e-/ 8g/J	8g/
4BB-;\ 4B-;\	4d;/ 4f;/ 4b-;/	4b-;\
=11	=11	=11
*^	*	*
16G/LL	8E-\	(16e-/LL	16e-/LL
16B-/	.	16f/)	16f/JJ
16e-/	8r	(16g/	16g/LL
16B-/JJ	.	16a-/JJ)	16a-/JJ
8G/	8E-\	8b-\L	8b-\
8ryy	8r	8g\ 8ee-\J	8ee-\
*v	*v	*	*
=12	=12	=12
8AA-/L	8a-/ 8cc/L	8cc\
8C/J	8e-/ 8a-/J	8a-/
8E-\	(16a-/ 16cc/LL	(16cc\LL
.	16g/) 16b-/J	&(16b-\JJ&))
8r	8g/ 8b-/J	8b-\
=13	=13	=13
8BB-/	16d/ (16b-/LL	16b-/LL
.	16a-/)	16a-/JJ
8r	16d/ (16f/	16f/LL
.	16a-/JJ)	16a-/JJ
8E-\L	8e-/ 8g/L	8g/
8G\J	8B-/ 8e-/ 8b-/J	8b-\
=14	=14	=14
8BB-\ 8A-\L	8d/ 8f/L	8f/
8BB-\ 8F\J	8B-/ 8d/ 8b-/J	8b-\
8E-/L	4B-/ 4e-/ 4g/	4g/
8EE-/J	.	.
=15	=15	=15
8BB-/	16d/ (16b-/LL	16b-/LL
.	16a-/)	16a-/JJ
8r	16d/ (16f/	16f/LL
.	16a-/JJ)	16a-/JJ
16E-\LL	8e-/ 8g/L	8g/
16B-\	.	.
16G\	8e-/ 8b-/ 8ee-/J	8ee-\
16E-\JJ	.	.
=16	=16	=16
*^	*^	*
16A-/LL	8BB-\L	(16f/LL	8d\L	16f/LL
16G/	.	16e-/	.	16e-/JJ
16A-/	8BB-\J	(16f/)	8d\J	16f/LL
16B-/JJ	.	16g/JJ	.	16g/JJ
*	*	*v	*v	*
4ryy	8E-\ 8G\	8B-/ 8e-/)	8e-/
.	8r	8r	8r
*v	*v	*	*
==	==	==
*-	*-	*-
!!!ENC: Craig Stuart Sapp
!!!END: 2004/05/27/
!!!EFL: 100/651
